svg/UnitedNationsOCHA-Humanitarian/socioeconomic_and_development_reconstruction_icon_box.svg

<svg xmlns="http://www.w3.org/2000/svg" viewBox="0 0 32 32" enable-background="new 0 0 32 32"><path fill="#407cca" d="m25.6 0h-19.2c-3.52 0-6.4 2.88-6.4 6.4v19.2c0 3.52 2.88 6.4 6.4 6.4h19.2c3.521 0 6.4-2.88 6.4-6.4v-19.2c0-3.52-2.88-6.4-6.4-6.4m-2.981 16.486v3.45c0 .25-.229.458-.512.458h-7.57c-.278 0-.509-.208-.509-.458v-3.45c0-.253.231-.458.509-.458h7.57c.284 0 .512.205.512.458m-5.466-7.281c.248.175.31.519.134.767l-1.728 2.483c-.178.25-.521.313-.769.138l-.517-.359 2.346-3.397.534.368m-11.191-3.735c.195-.066.41-.136.517-.166 1.969-.536 4.229-.196 6.609 1.47.17.121.349.241.519.361.828 1.88 2.408 1.689 2.408 1.689-.677.964-1.354 1.928-2.03 2.896-.016-.067-.048-.136-.078-.208-.017-.031-.036-.067-.056-.103-.028-.048-.058-.094-.091-.137-.016-.022-.029-.045-.048-.066-.042-.053-.092-.097-.141-.141-.098-.083-.219-.148-.361-.178-.914-.184-1.656.522-2.01.935-.075.094-.303.403-.236.306.011-.016-2.366-1.659-2.369-1.666-.006-.009.558-.797.84-1.197 1.047-1.494-.208-2.949-1.805-3.255-.373-.07-.732-.044-1.107-.028-.09.005-.276.035-.459.067-.388.063-.449-.462-.104-.579m-.149 13.509c-.735-.083-1.48-.565-1.813-1.274l4.58-6.541 1.819 1.275-4.586 6.54m11.423 7.495c0 .25-.226.456-.507.456h-7.57c-.281 0-.509-.206-.509-.456v-3.45c0-.253.228-.458.509-.458h7.57c.281 0 .507.205.507.458v3.45m10.764 0c0 .251-.229.456-.511.456h-7.569c-.282 0-.511-.205-.511-.456v-3.45c0-.253.229-.456.511-.456h7.569c.282 0 .511.203.511.456v3.45"/></svg>

<?xml version="1.0" encoding="utf-8"?>
<!-- Generator: Adobe Illustrator 16.0.3, SVG Export Plug-In . SVG Version: 6.00 Build 0)  -->
<!DOCTYPE svg PUBLIC "-//W3C//DTD SVG 1.1//EN" "http://www.w3.org/Graphics/SVG/1.1/DTD/svg11.dtd">
<svg version="1.1" id="Layer_1" xmlns="http://www.w3.org/2000/svg" xmlns:xlink="http://www.w3.org/1999/xlink" x="0px" y="0px"
	 width="32px" height="32px" viewBox="0 0 32 32" enable-background="new 0 0 32 32" xml:space="preserve">
<path fill="#407CCA" d="M25.6,0H6.4C2.88,0,0,2.88,0,6.4v19.2C0,29.12,2.88,32,6.4,32h19.2c3.521,0,6.4-2.88,6.4-6.4V6.4
	C32,2.88,29.12,0,25.6,0z M22.619,16.486v3.45c0,0.25-0.229,0.458-0.512,0.458h-7.57c-0.278,0-0.509-0.208-0.509-0.458v-3.45
	c0-0.253,0.231-0.458,0.509-0.458h7.57C22.391,16.028,22.619,16.233,22.619,16.486z M17.153,9.205
	c0.248,0.175,0.31,0.519,0.134,0.767l-1.728,2.483c-0.178,0.25-0.521,0.313-0.769,0.138l-0.517-0.359l2.346-3.397L17.153,9.205z
	 M5.962,5.47c0.195-0.066,0.41-0.136,0.517-0.166c1.969-0.536,4.229-0.196,6.609,1.47c0.17,0.121,0.349,0.241,0.519,0.361
	c0.828,1.88,2.408,1.689,2.408,1.689c-0.677,0.964-1.354,1.928-2.03,2.896c-0.016-0.067-0.048-0.136-0.078-0.208
	c-0.017-0.031-0.036-0.067-0.056-0.103c-0.028-0.048-0.058-0.094-0.091-0.137c-0.016-0.022-0.029-0.045-0.048-0.066
	c-0.042-0.053-0.092-0.097-0.141-0.141c-0.098-0.083-0.219-0.148-0.361-0.178c-0.914-0.184-1.656,0.522-2.008,0.935
	c-0.075,0.094-0.303,0.403-0.236,0.306c0.011-0.016-2.366-1.659-2.369-1.666c-0.006-0.009,0.558-0.797,0.84-1.197
	c1.047-1.494-0.208-2.949-1.805-3.255C7.259,5.94,6.9,5.966,6.525,5.982c-0.09,0.005-0.276,0.035-0.459,0.067
	C5.678,6.112,5.617,5.587,5.962,5.47z M5.813,18.979C5.078,18.896,4.333,18.414,4,17.705l4.58-6.541l1.819,1.275L5.813,18.979z
	 M17.236,26.474c0,0.25-0.226,0.456-0.507,0.456h-7.57c-0.281,0-0.509-0.206-0.509-0.456v-3.45c0-0.253,0.228-0.458,0.509-0.458
	h7.57c0.281,0,0.507,0.205,0.507,0.458V26.474z M28,26.474c0,0.251-0.229,0.456-0.511,0.456H19.92c-0.282,0-0.511-0.205-0.511-0.456
	v-3.45c0-0.253,0.229-0.456,0.511-0.456h7.569c0.282,0,0.511,0.203,0.511,0.456V26.474z"/>
</svg>
